src/assets/icons/linux.inline.svg

<svg viewBox="0 0 36 36" xmlns="http://www.w3.org/2000/svg">
    <path d="M19.0795 11.0188C19.1016 11.0072 19.1235 10.9958 19.1453 10.9844C19.4882 10.8057 19.9103 10.4933 20.1801 10.2578C20.4499 10.0223 20.5924 9.81649 20.3998 9.79403C20.2888 9.7811 20.2446 9.84404 20.1824 9.93247C20.1367 9.99757 20.0812 10.0765 19.9823 10.1491C19.915 10.1985 19.8444 10.2513 19.772 10.3055C19.5163 10.4969 19.2388 10.7046 19.0099 10.833C18.4915 11.1238 17.6422 11.551 16.9147 11.551C16.1859 11.551 15.6039 11.2144 15.1674 10.8686C14.9773 10.7178 14.816 10.5661 14.6826 10.4405C14.6628 10.4219 14.6436 10.4039 14.6251 10.3865C14.5859 10.3498 14.5576 10.2965 14.5292 10.2427C14.4804 10.1505 14.4309 10.0569 14.3243 10.0436C14.2236 10.0356 14.1942 10.3071 14.4394 10.5006C14.459 10.519 14.4795 10.5383 14.5009 10.5584C14.6336 10.6833 14.8001 10.84 14.9988 10.9974C15.4605 11.3632 16.1023 11.7387 16.9147 11.7387C17.7004 11.7387 18.4403 11.3524 19.0795 11.0188Z"/>
    <path fill-rule="evenodd" clip-rule="evenodd" d="M31.7315 28.3794L31.7307 28.3781C31.4784 28.0934 31.3575 27.5671 31.2284 27.0052L31.226 26.995C31.0964 26.4297 30.9513 25.8201 30.4872 25.425L30.4858 25.4238L30.4846 25.4227C30.3926 25.3424 30.2978 25.2744 30.2029 25.2179C30.1076 25.1615 30.011 25.1155 29.9144 25.0791C30.5596 23.1658 30.3066 21.2605 29.6552 19.5391C28.8562 17.4259 27.4609 15.585 26.3951 14.3256C26.3793 14.3056 26.3634 14.2856 26.3476 14.2656L26.3254 14.2377C25.1572 12.7648 24.0361 11.3514 24.0587 9.28266C24.0601 9.15457 24.062 9.02213 24.0639 8.88589C24.1101 5.59711 24.1874 0.0912595 18.7464 0.0836312C18.5161 0.0832131 18.2756 0.0928298 18.0252 0.1129C12.7253 0.53951 13.0381 5.29584 13.2257 8.14845C13.2623 8.70395 13.294 9.18726 13.2787 9.55234C13.1629 11.1905 12.8309 12.4817 11.7041 14.0831C10.3807 15.6569 8.51676 18.2045 7.63411 20.8566C7.21767 22.108 7.01948 23.3837 7.2022 24.5912C7.14491 24.6426 7.09056 24.6966 7.0383 24.7518C6.83644 24.9675 6.66192 25.2069 6.49594 25.4345C6.34252 25.6449 6.1964 25.8453 6.04275 26.0078C5.78785 26.2624 5.44083 26.3823 5.0538 26.516C4.98692 26.5391 4.91886 26.5626 4.84986 26.5873C4.38157 26.7554 3.8677 27.0029 3.55579 27.6016L3.5537 27.605C3.40694 27.8789 3.35927 28.1745 3.35927 28.4742C3.35927 28.7515 3.40025 29.0325 3.44164 29.303L3.45004 29.3577C3.53324 29.9002 3.61139 30.4097 3.49934 30.7584C3.12889 31.7715 3.08122 32.4719 3.34213 32.9804C3.60387 33.4896 4.14115 33.7142 4.74868 33.8413C5.13273 33.9213 5.55976 33.9699 6.00518 34.0205C6.96897 34.1299 8.01885 34.2492 8.90561 34.7193C10.2938 35.4452 11.7024 35.7032 12.8251 35.4468C13.6395 35.2612 14.3002 34.7762 14.6397 34.0303C15.051 34.0283 15.4812 33.9456 15.9809 33.8495C16.548 33.7405 17.2047 33.6142 18.0252 33.5691C18.5169 33.5294 19.0662 33.609 19.6663 33.696C20.3444 33.7943 21.0874 33.9019 21.8857 33.8576C21.925 34.0206 21.9819 34.1778 22.0596 34.3271L22.061 34.3293L22.0622 34.3313C22.6454 35.4978 23.7292 36.0314 24.8845 35.9402C26.0409 35.849 27.2706 35.1671 28.265 33.9843L28.0827 33.8312L28.2663 33.9826C28.9335 33.1734 29.9109 32.6978 30.795 32.2677C31.1662 32.0871 31.521 31.9145 31.8295 31.7285C32.3509 31.4141 32.7736 31.0203 32.8066 30.4482C32.8391 29.8767 32.5034 29.2361 31.7315 28.3794ZM21.3037 7.31833C21.307 7.74021 21.2343 8.09937 21.0741 8.46606C20.983 8.67512 20.8781 8.85073 20.7522 9.00293C20.7095 8.98244 20.6652 8.96279 20.6192 8.94397C20.4599 8.87582 20.319 8.81979 20.1928 8.77213C20.0931 8.7345 20.0107 8.70628 19.9304 8.67879C19.9091 8.6715 19.8875 8.66412 19.8663 8.65677C19.8896 8.62848 19.9202 8.59859 19.9528 8.56675C20.0228 8.49835 20.1021 8.42092 20.1389 8.33105C20.2209 8.13245 20.261 7.93844 20.2685 7.70722L20.269 7.70063L20.2693 7.69795L20.2696 7.69639L20.2699 7.69467C20.2706 7.69001 20.2715 7.68487 20.2715 7.67921C20.2761 7.45761 20.2468 7.2682 20.182 7.07419C20.1142 6.87057 20.0281 6.72423 19.9035 6.60255C19.7785 6.48088 19.6539 6.42569 19.5042 6.42067C19.4971 6.42025 19.4904 6.42025 19.4833 6.42025C19.3428 6.42067 19.2207 6.46917 19.0944 6.57454C18.9619 6.68534 18.8636 6.82708 18.7817 7.02443C18.7002 7.22179 18.66 7.41747 18.652 7.64994C18.6508 7.65914 18.6508 7.66708 18.6508 7.67628C18.6479 7.80422 18.6563 7.9213 18.6759 8.03503C18.3883 7.89161 18.0202 7.78704 17.766 7.72641C17.7514 7.61645 17.743 7.50314 17.7405 7.38439V7.3522C17.7359 6.93157 17.8049 6.57073 17.9667 6.20446C18.1285 5.83777 18.3288 5.57436 18.6106 5.35986C18.8928 5.14578 19.17 5.04753 19.4982 5.04418H19.5137C19.8348 5.04418 20.1095 5.13868 20.3917 5.34314C20.6782 5.55136 20.8847 5.81143 21.0511 6.17519C21.2142 6.52976 21.2928 6.87638 21.3008 7.28739C21.3007 7.29826 21.3007 7.30746 21.3037 7.31833ZM21.2309 9.77102C21.1209 9.55569 20.8964 9.35081 20.5143 9.19401L20.5122 9.19318C20.1851 9.05315 19.9343 8.96662 19.7214 8.89319C19.4168 8.78814 19.1898 8.70988 18.9287 8.54008C18.2067 8.07597 17.61 7.91332 17.1141 7.91541C16.8545 7.91624 16.6224 7.96224 16.4146 8.03415C15.8752 8.21969 15.4977 8.5852 15.2442 8.83074C15.2137 8.86021 15.1851 8.88796 15.1582 8.91346L15.1573 8.91471C15.1199 8.95019 15.0744 8.98326 14.9876 9.0463L14.9863 9.04728C14.9588 9.06721 14.9272 9.09016 14.8906 9.11708C14.7354 9.23039 14.503 9.40098 14.1685 9.65185C13.8712 9.87471 13.7746 10.1649 13.8775 10.5048C13.9799 10.8447 14.3077 11.2369 14.9073 11.576L14.9094 11.5773C15.1551 11.7217 15.3494 11.8992 15.537 12.0707C15.6336 12.159 15.7284 12.2456 15.8276 12.3253C15.9735 12.4424 16.1269 12.5469 16.3117 12.6259C16.4965 12.705 16.7123 12.7585 16.9824 12.7744C17.6163 12.8112 18.0829 12.6209 18.4947 12.3851C18.6301 12.3079 18.7587 12.2249 18.8846 12.1438C19.1423 11.9777 19.3885 11.8189 19.6579 11.7316L19.6597 11.7307C20.4816 11.474 21.0679 10.9568 21.2514 10.4655C21.3434 10.2197 21.3405 9.98635 21.2309 9.77102ZM32.3307 30.4211C32.3106 30.7739 32.0552 31.0361 31.5831 31.3204C31.3192 31.4796 30.9982 31.6331 30.6494 31.7998C29.7515 32.229 28.6691 32.7464 27.9003 33.6778C26.9729 34.7812 25.8423 35.387 24.8468 35.4657C23.8513 35.5443 22.9924 35.1312 22.4857 34.1147L22.4848 34.1126L22.4836 34.1101C22.1691 33.5122 22.3 32.5693 22.5647 31.5742C22.6397 31.2924 22.724 31.0083 22.8074 30.7271C23.0185 30.0158 23.2243 29.3225 23.2608 28.7277V28.7251C23.3143 27.6615 23.3741 26.7324 23.5526 26.0153C23.7316 25.2982 24.013 24.8132 24.5114 24.5402C24.5348 24.5276 24.5578 24.5155 24.5808 24.5042C24.6373 25.4253 25.0934 26.3653 25.8995 26.5685C26.7818 26.801 28.0533 26.0441 28.5902 25.4266C28.6051 25.426 28.62 25.4254 28.6348 25.4248C28.654 25.424 28.6731 25.4231 28.6922 25.4223C28.7639 25.4192 28.8347 25.4162 28.9038 25.4145C29.375 25.4031 29.7697 25.4303 30.1736 25.7832L30.1748 25.7845L30.176 25.7853C30.4863 26.0483 30.6339 26.5451 30.7618 27.1012C30.7751 27.1587 30.788 27.2168 30.8011 27.2752C30.9139 27.7812 31.0315 28.3082 31.3757 28.6954L31.3765 28.6967C32.1141 29.515 32.3512 30.0677 32.3307 30.4211ZM14.4034 33.0318L14.4039 33.0293C14.4695 32.3737 13.9653 31.5169 13.3134 30.6639C13.1336 30.4285 12.9448 30.1944 12.7581 29.9628C12.2679 29.3547 11.7918 28.7641 11.528 28.2133L11.5268 28.2113L10.1579 25.7163C9.68373 25.0733 9.1916 24.6786 8.62714 24.5933C8.54352 24.5803 8.46449 24.5741 8.39007 24.5736L8.38384 24.574L8.38049 24.5739L8.37722 24.5738L8.37543 24.5736C7.95021 24.5765 7.66798 24.776 7.38617 25.077C7.2262 25.2478 7.07735 25.4521 6.92392 25.6628C6.75693 25.892 6.58452 26.1287 6.38645 26.3377L6.38435 26.3398L6.38185 26.3418C6.0359 26.6889 5.61236 26.8315 5.22489 26.9619C5.15201 26.9864 5.08041 27.0105 5.01084 27.0355C4.57181 27.1927 4.21808 27.3591 3.97683 27.8241L3.97516 27.8274C3.78658 28.177 3.82798 28.6792 3.91244 29.2306C3.92227 29.2949 3.93271 29.3596 3.94321 29.4247C4.02286 29.9187 4.10579 30.433 3.95174 30.9077L3.95049 30.9119L3.94881 30.9161C3.59676 31.8765 3.60052 32.4397 3.7661 32.7629C3.93167 33.0857 4.29293 33.2597 4.8461 33.3751C5.17786 33.4444 5.56515 33.486 5.98393 33.5311C6.96219 33.6363 8.11226 33.76 9.12763 34.2978C10.438 34.9832 11.7517 35.2039 12.7193 34.9827C13.6876 34.7615 14.3182 34.1528 14.4034 33.0347V33.0318ZM29.1593 24.9395C29.0685 24.9362 28.9791 24.9366 28.8921 24.9387C28.8841 24.9391 28.8762 24.9391 28.8678 24.9391C29.0924 24.23 28.5956 23.7069 27.2719 23.1082C25.8992 22.5044 24.8054 22.5642 24.6206 23.7893C24.6089 23.8533 24.5993 23.9189 24.5922 23.985C24.4893 24.0209 24.3864 24.0661 24.2828 24.1225C23.6384 24.4754 23.2864 25.1151 23.0907 25.9004C22.8954 26.6848 22.839 27.6327 22.7855 28.6984C22.7547 29.1966 22.5616 29.8594 22.3551 30.5672C22.3396 30.6204 22.324 30.674 22.3084 30.7276C20.0598 32.3319 16.9389 33.0268 14.2889 31.218C14.1095 30.9341 13.9034 30.6527 13.6914 30.3751C13.5559 30.1979 13.4167 30.0218 13.2787 29.8479C13.5505 29.8483 13.7817 29.8035 13.9686 29.7191C14.2011 29.6133 14.3641 29.4444 14.4453 29.2269C14.6067 28.7925 14.4444 28.1796 13.9272 27.4792C13.41 26.7793 12.534 25.9895 11.2471 25.2C10.3013 24.6118 9.77279 23.8905 9.52526 23.1078C9.27732 22.3246 9.31202 21.478 9.5031 20.6421C9.86937 19.0378 10.8101 17.4774 11.4106 16.4982C11.572 16.3794 11.4683 16.7189 10.8026 17.9549C10.2064 19.0847 9.09125 21.692 10.6178 23.7275C10.6588 22.2791 11.0046 20.8019 11.5853 19.42C11.7287 19.0951 11.8986 18.7297 12.0825 18.334C12.984 16.3952 14.2241 13.7283 14.3407 11.5276C14.4135 11.5803 14.6623 11.7484 14.7731 11.8115C14.9808 11.9338 15.1562 12.0927 15.3378 12.2575C15.4399 12.3501 15.5443 12.4448 15.6578 12.5361C15.9743 12.7903 16.3694 13.0098 16.9665 13.0445C17.0238 13.0479 17.0798 13.0495 17.1346 13.0495C17.7501 13.0495 18.2301 12.8488 18.6298 12.6201C18.7796 12.5345 18.919 12.4457 19.0509 12.3616C19.3014 12.202 19.5248 12.0597 19.7404 11.9896C20.4357 11.7722 20.9893 11.3871 21.3037 10.9389C21.8439 13.0679 23.0999 16.1432 23.9073 17.6438C24.3367 18.4399 25.1905 20.1316 25.5593 22.1699C25.793 22.1628 26.0506 22.1967 26.3261 22.2673C27.2907 19.7666 25.5083 17.0735 24.693 16.3234C24.3639 16.0039 24.348 15.8609 24.5115 15.8676C25.3954 16.6499 26.5565 18.2224 26.9788 19.9978C27.1715 20.8072 27.2125 21.6585 27.006 22.4985C27.1067 22.5404 27.2096 22.5859 27.3137 22.6353C28.862 23.3891 29.4344 24.0447 29.1593 24.9395ZM16.3264 7.77743C16.3669 7.76363 16.4079 7.75067 16.4501 7.73854C16.4623 7.59931 16.4635 7.45547 16.4539 7.30286V7.29993C16.4338 6.93617 16.3615 6.62802 16.2256 6.31986C16.0901 6.01171 15.9283 5.79304 15.7142 5.62203C15.5169 5.46439 15.3262 5.39331 15.1126 5.3929C15.0946 5.3929 15.0766 5.39331 15.0582 5.39415C14.8224 5.40628 14.6267 5.50328 14.4327 5.69603C14.2383 5.88837 14.1045 6.12251 14.0041 6.44614C13.9042 6.76976 13.8687 7.08251 13.8887 7.44628V7.4492C13.9105 7.81297 13.9828 8.12112 14.1183 8.42885C14.2329 8.68934 14.3637 8.88669 14.5314 9.04391C14.6083 8.98704 14.6744 8.93854 14.73 8.89798C14.7883 8.85541 14.8393 8.81541 14.8982 8.76913C14.9273 8.74636 14.9584 8.72192 14.9931 8.69506C14.9764 8.68336 14.9597 8.66998 14.9425 8.65534C14.8409 8.56754 14.7623 8.45339 14.6946 8.29325C14.6285 8.13771 14.5913 7.98385 14.5729 7.79862C14.5729 7.79486 14.5725 7.79141 14.5721 7.78796C14.5717 7.78451 14.5712 7.78106 14.5712 7.77729C14.5545 7.58621 14.565 7.4198 14.6051 7.25046C14.6453 7.08071 14.7009 6.95276 14.7853 6.84991C14.8702 6.74663 14.9597 6.69395 15.0676 6.68475C15.0776 6.68391 15.0876 6.6835 15.0972 6.6835C15.1934 6.68266 15.2804 6.71945 15.3724 6.7989C15.474 6.8867 15.5513 7.00085 15.6203 7.16266C15.6851 7.3182 15.724 7.47207 15.7424 7.65562C15.7424 7.66315 15.7424 7.66942 15.7436 7.67695C15.757 7.81534 15.7545 7.93911 15.7374 8.0612C15.9138 7.94454 16.0964 7.85687 16.3264 7.77743Z"/>
</svg>

<svg viewBox="0 0 36 36" xmlns="http://www.w3.org/2000/svg">
  <defs/>
  <path d="M19.08 11.019l.065-.035a6.037 6.037 0 001.035-.726c.27-.236.412-.442.22-.464-.111-.013-.155.05-.218.138a.85.85 0 01-.2.217l-.21.157c-.256.19-.533.399-.762.527-.519.29-1.368.718-2.095.718-.73 0-1.311-.337-1.748-.682a7.448 7.448 0 01-.484-.428l-.058-.055a.542.542 0 01-.096-.143c-.049-.093-.098-.186-.205-.2-.1-.007-.13.264.115.458l.062.057c.133.125.3.282.498.44.461.365 1.103.74 1.916.74.785 0 1.525-.386 2.165-.72z"/>
  <path fill-rule="evenodd" clip-rule="evenodd" d="M31.732 28.38l-.001-.002c-.253-.285-.373-.81-.503-1.373l-.002-.01c-.13-.565-.275-1.175-.739-1.57l-.001-.001-.001-.001a1.932 1.932 0 00-.57-.344c.645-1.913.392-3.819-.26-5.54-.799-2.113-2.194-3.954-3.26-5.213l-.047-.06-.023-.028c-1.168-1.473-2.289-2.887-2.266-4.955l.005-.397c.046-3.289.123-8.795-5.318-8.802-.23 0-.47.009-.72.029-5.3.427-4.988 5.183-4.8 8.035.036.556.068 1.04.053 1.404-.116 1.639-.448 2.93-1.575 4.531-1.323 1.574-3.187 4.121-4.07 6.774-.416 1.251-.615 2.527-.432 3.734a2.816 2.816 0 00-.164.16c-.202.216-.376.456-.542.683-.153.21-.3.411-.453.574-.255.254-.602.374-.99.508l-.203.071c-.468.168-.982.416-1.294 1.015l-.002.003c-.147.274-.195.57-.195.87 0 .276.041.557.083.828l.008.055c.083.542.161 1.052.05 1.4-.371 1.014-.419 1.714-.158 2.222.262.51.8.734 1.407.861.384.08.81.129 1.256.18.964.109 2.014.228 2.9.698 1.389.726 2.797.984 3.92.728.815-.186 1.475-.67 1.815-1.417.411-.002.841-.084 1.34-.18.568-.11 1.225-.236 2.045-.28.492-.04 1.041.039 1.641.126.678.098 1.421.206 2.22.162.039.163.096.32.174.47l.001.001.001.002c.583 1.167 1.667 1.7 2.822 1.61 1.157-.092 2.387-.774 3.381-1.957l-.182-.153.183.152c.668-.81 1.645-1.285 2.529-1.715.371-.18.726-.354 1.034-.54.522-.314.945-.708.978-1.28.032-.571-.304-1.212-1.076-2.069zM21.303 7.317a2.7 2.7 0 01-.23 1.148c-.091.21-.196.385-.322.537a10.582 10.582 0 00-.822-.324c-.02-.008-.043-.015-.064-.022a1.22 1.22 0 01.087-.09c.07-.069.15-.146.186-.236.082-.199.122-.393.13-.624v-.012a1.728 1.728 0 00-.088-.62 1.118 1.118 0 00-.277-.472.572.572 0 00-.4-.182h-.02a.586.586 0 00-.39.154c-.132.11-.23.252-.312.45a1.734 1.734 0 00-.13.625l-.001.026c-.003.128.005.245.025.359a4.55 4.55 0 00-.91-.309 3.084 3.084 0 01-.025-.342v-.032c-.005-.42.064-.781.226-1.148.162-.366.362-.63.644-.844.282-.214.559-.312.887-.316h.016c.32 0 .596.095.878.3.286.207.493.467.66.831.162.355.24.701.249 1.112 0 .011 0 .02.003.031zm-.073 2.453c-.11-.215-.335-.42-.717-.577h-.002c-.327-.14-.578-.227-.79-.3-.305-.106-.532-.184-.793-.354-.722-.464-1.319-.627-1.815-.625-.26.001-.492.047-.7.12-.539.185-.916.55-1.17.796-.03.03-.059.057-.086.082v.002a1.743 1.743 0 01-.17.131l-.002.001-.095.07c-.156.113-.388.284-.723.535-.297.223-.393.513-.29.853.102.34.43.732 1.03 1.071l.001.001c.246.145.44.322.628.494.097.088.191.175.29.254.146.117.3.222.485.3.184.08.4.133.67.15.634.036 1.1-.154 1.513-.39.135-.077.264-.16.39-.241.257-.166.503-.325.773-.412l.002-.001c.822-.257 1.408-.774 1.591-1.265.092-.246.09-.48-.02-.695zm11.1 20.65c-.02.353-.276.615-.748.9-.264.159-.585.312-.934.479-.898.429-1.98.946-2.749 1.878-.927 1.103-2.058 1.709-3.053 1.788-.996.078-1.855-.335-2.361-1.351l-.001-.002-.001-.003c-.315-.598-.184-1.54.08-2.536.076-.282.16-.566.243-.847.212-.711.417-1.404.454-2v-.002c.053-1.064.113-1.993.292-2.71.179-.717.46-1.202.958-1.475a2.1 2.1 0 01.07-.036c.056.921.512 1.861 1.319 2.064.882.233 2.153-.524 2.69-1.141l.045-.002.057-.003.212-.008c.471-.01.866.016 1.27.37l.002.001c.31.263.458.76.586 1.316l.04.174c.112.506.23 1.033.574 1.42v.002c.738.818.975 1.37.955 1.724zm-17.928 2.61v-.002c.066-.655-.438-1.512-1.09-2.365-.18-.236-.368-.47-.555-.701-.49-.608-.966-1.199-1.23-1.75l-.001-.002-1.37-2.495c-.473-.643-.965-1.037-1.53-1.123a1.613 1.613 0 00-.237-.02l-.006.001H8.375c-.425.002-.707.202-.989.503-.16.17-.309.375-.462.586-.167.229-.34.466-.538.675l-.002.002-.002.002c-.346.347-.77.49-1.157.62l-.214.073c-.44.158-.793.324-1.034.79l-.002.002c-.188.35-.147.852-.063 1.404l.031.194c.08.494.163 1.008.009 1.483l-.002.004-.001.004c-.352.96-.348 1.524-.183 1.847.166.323.527.497 1.08.612.332.07.72.111 1.138.156.978.105 2.128.229 3.144.767 1.31.685 2.624.906 3.591.685.969-.221 1.6-.83 1.684-1.948v-.003zM29.16 24.94a4.417 4.417 0 00-.267-.001h-.024c.224-.709-.272-1.232-1.596-1.83-1.373-.605-2.467-.545-2.651.68-.012.064-.022.13-.029.196a2.074 2.074 0 00-.31.137c-.644.353-.996.993-1.191 1.778-.196.785-.252 1.733-.306 2.798-.03.499-.223 1.161-.43 1.87l-.047.16c-2.248 1.604-5.37 2.299-8.02.49-.178-.284-.385-.565-.597-.843a37.33 37.33 0 00-.412-.527c.271 0 .503-.044.69-.129a.874.874 0 00.476-.492c.162-.434 0-1.047-.518-1.748-.517-.7-1.393-1.49-2.68-2.279-.946-.588-1.474-1.31-1.722-2.092-.248-.783-.213-1.63-.022-2.466.366-1.604 1.307-3.165 1.908-4.144.161-.119.057.22-.608 1.457-.597 1.13-1.712 3.737-.185 5.773.04-1.449.387-2.926.967-4.308.144-.325.314-.69.497-1.086.902-1.939 2.142-4.606 2.259-6.806.073.052.321.22.432.284.208.122.383.28.565.446.102.092.206.187.32.278.316.254.711.474 1.309.508.057.004.113.005.168.005.615 0 1.095-.2 1.495-.429.15-.085.289-.174.42-.258.251-.16.475-.302.69-.372.696-.218 1.25-.603 1.564-1.051.54 2.129 1.796 5.204 2.603 6.705.43.796 1.284 2.488 1.652 4.526a2.78 2.78 0 01.767.097c.965-2.5-.818-5.194-1.633-5.944-.33-.32-.345-.462-.181-.455.883.782 2.044 2.354 2.467 4.13.193.81.233 1.66.027 2.5.1.042.204.088.308.137 1.548.754 2.12 1.41 1.845 2.304zM16.326 7.776l.124-.038a2.89 2.89 0 00.004-.436V7.3a2.714 2.714 0 00-.228-.98c-.136-.308-.298-.527-.512-.698a.931.931 0 00-.656-.228c-.236.012-.431.11-.625.302-.195.192-.329.427-.429.75-.1.324-.135.637-.115 1v.003c.022.364.094.672.23.98.114.26.245.458.412.615l.199-.146a5.8 5.8 0 00.168-.129l.095-.074a.941.941 0 01-.299-.402 1.628 1.628 0 01-.121-.494v-.011l-.002-.01a1.61 1.61 0 01.034-.528.957.957 0 01.18-.4c.085-.103.175-.156.283-.165l.03-.001c.095-.001.182.035.274.115a.95.95 0 01.248.364 1.67 1.67 0 01.124.514c.013.138.01.262-.007.384.177-.116.36-.204.59-.284z"/>
</svg>
